!!!OTL: WIE SIE SO SANFT RUHN
!!!ARE: Europa, Mitteleuropa, Deutschland
!!!SCT: F1061
!!!YEM: Copyright 1995, estate of Helmut Schaffrath.
**kern
*ICvox
*Ivox
*M3/4
*k[]
*C:
=1
{4c
4d
4c
=2
8c
8B
4B
4r}
=3
{4d
4c
4B
=4
8B
8c
4c
4r}
=5
{4g
4f
4e
=6
4e
4d
4c}
=7
{4d
8.f
16d
8.e
16c
=8
4c#
4d
4r}
=9
{4d
4d
4e
=10
8.e
16f
4f
4r}
=11
{4f
4e
4d
=12
8d#
8e
4e
4r}
=13
{4A
4a
4g
=14
4g
4f
8e}
{8c
=15
16A
16a
16g
16f
4e
4d
=16
2c
4r}
==
!!!AGN: Trauer -, Bregraebnis -, Trost - Lied
!!!ONB: ESAC (Essen Associative Code) Database: FINK
!!!AMT: simple triple
!!!AIN: vox
!!!EED: Helmut Schaffrath
!!!EEV: 1.0
*-
